lib/brands/logos/discord.svg

<svg xmlns="http://www.w3.org/2000/svg" fill="none" aria-hidden="true" viewBox="0 0 234 51"><g id="Discord"><g id="Union"><path fill="#5865F2" fill-rule="evenodd" d="M54.743 8.23213C51.2488 6.59728 47.5126 5.40913 43.6066 4.73259C43.1268 5.59989 42.5664 6.76643 42.18 7.69441C38.0277 7.06996 33.9137 7.06996 29.8378 7.69441C29.4514 6.76643 28.8783 5.59989 28.3943 4.73259C24.484 5.40913 20.7435 6.60164 17.2493 8.24079C10.2014 18.891 8.29085 29.2768 9.24613 39.515C13.9207 43.0058 18.4508 45.1264 22.9045 46.514C24.0042 45.0006 24.9849 43.3918 25.8298 41.6962C24.2207 41.0848 22.6795 40.3303 21.2233 39.4543C21.6096 39.1681 21.9875 38.8689 22.3526 38.561C31.2346 42.7153 40.8851 42.7153 49.6609 38.561C50.0303 38.8689 50.4082 39.1681 50.7903 39.4543C49.3297 40.3346 47.7843 41.0891 46.1752 41.7006C47.0201 43.3918 47.9966 45.0049 49.1005 46.5183C53.5585 45.1307 58.0929 43.0102 62.7674 39.515C63.8883 27.6463 60.8526 17.3559 54.743 8.23213ZM27.0398 33.2186C24.3736 33.2186 22.187 30.7294 22.187 27.6983C22.187 24.6671 24.3269 22.1737 27.0398 22.1737C29.7529 22.1737 31.9394 24.6628 31.8927 27.6983C31.8969 30.7294 29.7529 33.2186 27.0398 33.2186ZM44.9737 33.2186C42.3074 33.2186 40.1209 30.7294 40.1209 27.6983C40.1209 24.6671 42.2607 22.1737 44.9737 22.1737C47.6867 22.1737 49.8732 24.6628 49.8265 27.6983C49.8265 30.7294 47.6867 33.2186 44.9737 33.2186Z" clip-rule="evenodd"/><path fill="#5865F2" fill-rule="evenodd" d="M81.5542 15.3924H93.1446C95.9387 15.3924 98.2992 15.839 100.236 16.728C102.167 17.6169 103.615 18.8572 104.575 20.4443C105.534 22.0314 106.018 23.8484 106.018 25.8952C106.018 27.8986 105.517 29.7155 104.515 31.3417C103.513 32.9722 101.989 34.2601 99.9382 35.2098C97.8877 36.1594 95.3482 36.6364 92.3129 36.6364H81.5542V15.3924ZM92.1938 31.2376C94.0747 31.2376 95.5228 30.7563 96.5329 29.7979C97.5437 28.8352 98.0491 27.5257 98.0491 25.8648C98.0491 24.3253 97.5984 23.0981 96.6986 22.1788C95.7989 21.2595 94.4358 20.7955 92.6141 20.7955H88.9883V31.2376H92.1938Z" clip-rule="evenodd"/><path fill="#5865F2" d="M119.031 34.7589C120.317 35.5698 121.765 36.1856 123.37 36.6105C124.975 37.0355 126.63 37.248 128.333 37.2523C131.228 37.2523 133.462 36.7103 135.037 35.6262C136.612 34.5421 137.397 33.0807 137.397 31.2377C137.397 29.5552 136.922 28.2846 135.971 27.426C135.02 26.5674 133.573 25.9647 131.632 25.6221L128.66 25.0757C127.891 24.9109 127.361 24.7548 127.072 24.603C126.784 24.4512 126.639 24.2258 126.639 23.9222C126.639 23.276 127.569 22.9508 129.433 22.9508C130.724 22.9508 131.976 23.1156 133.194 23.4495C134.417 23.7878 135.487 24.2344 136.421 24.8025V20.0367C135.508 19.4687 134.362 19.0047 132.974 18.6404C131.585 18.2762 130.061 18.0941 128.397 18.0941C126.533 18.0941 124.911 18.3325 123.523 18.8095C122.134 19.2822 121.064 19.9544 120.313 20.826C119.557 21.6976 119.183 22.7166 119.183 23.8918C119.183 25.2881 119.613 26.4156 120.475 27.2742C121.336 28.1372 122.784 28.8093 124.826 29.295L128.393 30.1145C128.966 30.2577 129.352 30.4268 129.552 30.6306C129.751 30.8345 129.849 31.086 129.849 31.3895C129.849 31.654 129.666 31.8839 129.301 32.0746C128.936 32.2655 128.397 32.3608 127.683 32.3608C126.155 32.3608 124.575 32.1137 122.941 31.6193C121.306 31.1207 120.003 30.4875 119.031 29.72V34.7589Z"/><path fill="#5865F2" d="M144.413 35.9729C142.711 35.123 141.424 33.9695 140.566 32.5125C139.709 31.0554 139.276 29.4163 139.276 27.5949C139.276 25.7737 139.721 24.1432 140.613 22.7078C141.505 21.2725 142.812 20.145 144.536 19.3254C146.259 18.5059 148.319 18.0982 150.718 18.0982C153.689 18.0982 156.156 18.7357 158.118 20.0106V25.5655C157.426 25.0798 156.619 24.6852 155.698 24.3817C154.776 24.0782 153.791 23.9263 152.739 23.9263C150.896 23.9263 149.457 24.2689 148.416 24.9584C147.376 25.6479 146.854 26.5455 146.854 27.66C146.854 28.7528 147.359 29.6461 148.37 30.3486C149.381 31.0468 150.845 31.398 152.768 31.398C153.757 31.398 154.734 31.2505 155.698 30.96C156.657 30.6652 157.485 30.3053 158.177 29.8802V35.253C156 36.5887 153.473 37.2565 150.599 37.2565C148.179 37.2478 146.115 36.8229 144.413 35.9729Z"/><path fill="#5865F2" fill-rule="evenodd" d="M161.608 32.4823C162.508 33.961 163.816 35.1232 165.531 35.9731C167.242 36.823 169.267 37.2437 171.607 37.2437C173.946 37.2437 175.971 36.8187 177.686 35.9687C179.401 35.1188 180.705 33.9566 181.597 32.4779C182.488 30.9993 182.934 29.3514 182.934 27.5301C182.934 25.6871 182.488 24.061 181.597 22.643C180.705 21.225 179.406 20.1148 177.703 19.3039C176.001 18.493 173.967 18.0897 171.61 18.0897C169.254 18.0897 167.22 18.493 165.518 19.3039C163.811 20.1148 162.512 21.2336 161.608 22.6603C160.703 24.087 160.254 25.7132 160.254 27.5344C160.254 29.3558 160.708 31.0036 161.608 32.4823ZM175.648 27.6602C175.648 28.8744 175.283 29.8501 174.561 30.5873C173.84 31.3245 172.854 31.693 171.607 31.6974C170.337 31.6974 169.339 31.3245 168.617 30.5873C167.896 29.8501 167.535 28.8744 167.535 27.6602C167.535 26.446 167.896 25.4833 168.617 24.7634C169.343 24.0436 170.337 23.6837 171.607 23.6837C172.854 23.6837 173.84 24.0436 174.561 24.7634C175.287 25.479 175.648 26.446 175.648 27.6602Z" clip-rule="evenodd"/><path fill="#5865F2" d="M200.791 19.2171V25.7738C200.036 25.2664 199.059 25.0149 197.849 25.0149C196.265 25.0149 195.042 25.5049 194.193 26.4849C193.34 27.465 192.915 28.9914 192.915 31.0555V36.6408H185.634V18.8832H192.767V24.5292C193.162 22.465 193.803 20.943 194.686 19.9586C195.565 18.9786 196.702 18.4886 198.087 18.4886C199.135 18.4886 200.036 18.7315 200.791 19.2171Z"/><path fill="#5865F2" fill-rule="evenodd" d="M224.983 36.6409V14.7854H217.701V22.708C216.513 19.6335 214.186 18.0941 210.718 18.0941C209.032 18.0941 207.529 18.5104 206.213 19.3386C204.896 20.1669 203.874 21.3204 203.151 22.7991C202.426 24.2778 202.073 25.9474 202.094 27.8077C202.094 29.6116 202.43 31.2247 203.092 32.6515C203.759 34.0782 204.705 35.2013 205.932 36.0208C207.16 36.8404 208.595 37.2481 210.242 37.2481C212.084 37.2481 213.638 36.8578 214.895 36.0815C216.152 35.301 217.086 34.1605 217.701 32.6645V36.6409H224.983ZM217.727 27.5996C217.727 28.7704 217.358 29.7287 216.615 30.4659C215.871 31.2031 214.886 31.5717 213.66 31.576C212.45 31.576 211.482 31.2117 210.747 30.4832C210.012 29.7548 209.648 28.8138 209.648 27.6602C209.648 26.5067 210.012 25.5745 210.747 24.8545C211.482 24.1347 212.462 23.7748 213.689 23.7748C214.933 23.7748 215.922 24.1304 216.645 24.8372C217.366 25.544 217.727 26.4677 217.727 27.5996Z" clip-rule="evenodd"/><path fill="#5865F2" d="M112.153 20.7737C114.158 20.7737 115.784 19.2826 115.784 17.4433C115.784 15.604 114.158 14.113 112.153 14.113C110.148 14.113 108.523 15.604 108.523 17.4433C108.523 19.2826 110.148 20.7737 112.153 20.7737Z"/><path fill="#5865F2" d="M115.78 23.0678C113.505 24.0912 110.745 24.0478 108.52 23.0678V36.7362H115.78V23.0678Z"/></g></g></svg>

<svg xmlns="http://www.w3.org/2000/svg" fill="none" aria-hidden="true" viewBox="0 0 234 51"><path fill="#5865F2" fill-rule="evenodd" d="M54.743 8.232a43.965 43.965 0 0 0-11.136-3.5 32.83 32.83 0 0 0-1.427 2.962 40.89 40.89 0 0 0-12.342 0 31.675 31.675 0 0 0-1.444-2.961A43.818 43.818 0 0 0 17.25 8.24c-7.048 10.65-8.958 21.036-8.003 31.274 4.675 3.49 9.205 5.611 13.658 6.999a33.96 33.96 0 0 0 2.926-4.818 28.757 28.757 0 0 1-4.607-2.242c.387-.286.765-.585 1.13-.893 8.882 4.154 18.532 4.154 27.308 0 .37.308.747.607 1.13.893a28.692 28.692 0 0 1-4.616 2.247 33.818 33.818 0 0 0 2.925 4.817c4.459-1.387 8.993-3.508 13.667-7.003 1.121-11.869-1.914-22.16-8.024-31.283ZM27.04 33.22c-2.666 0-4.853-2.49-4.853-5.52 0-3.032 2.14-5.525 4.853-5.525 2.713 0 4.9 2.489 4.853 5.524.004 3.031-2.14 5.52-4.853 5.52Zm17.934 0c-2.667 0-4.853-2.49-4.853-5.52 0-3.032 2.14-5.525 4.853-5.525 2.713 0 4.9 2.489 4.853 5.524 0 3.031-2.14 5.52-4.853 5.52Zm36.58-17.828h11.59c2.795 0 5.155.447 7.092 1.336 1.931.889 3.379 2.13 4.339 3.716.959 1.587 1.443 3.404 1.443 5.451 0 2.004-.501 3.82-1.503 5.447-1.002 1.63-2.526 2.918-4.577 3.868-2.05.95-4.59 1.426-7.625 1.426H81.554V15.392Zm10.64 15.846c1.88 0 3.329-.482 4.339-1.44 1.01-.963 1.516-2.272 1.516-3.933 0-1.54-.45-2.767-1.35-3.686-.9-.92-2.263-1.383-4.085-1.383h-3.626v10.442h3.206Z" clip-rule="evenodd"/><path fill="#5865F2" d="M119.031 34.759c1.286.81 2.734 1.427 4.339 1.852 1.605.425 3.26.637 4.963.641 2.895 0 5.129-.542 6.704-1.626 1.575-1.084 2.36-2.545 2.36-4.388 0-1.683-.475-2.953-1.426-3.812s-2.398-1.461-4.339-1.804l-2.972-.546c-.769-.165-1.299-.321-1.588-.473-.288-.152-.433-.377-.433-.68 0-.647.93-.972 2.794-.972 1.291 0 2.543.165 3.761.498 1.223.339 2.293.785 3.227 1.353v-4.765c-.913-.568-2.059-1.032-3.447-1.397-1.389-.364-2.913-.546-4.577-.546-1.864 0-3.486.238-4.874.715-1.389.473-2.459 1.145-3.21 2.017-.756.872-1.13 1.89-1.13 3.066 0 1.396.43 2.524 1.292 3.382.861.863 2.309 1.535 4.351 2.021l3.567.82c.573.143.959.312 1.159.516.199.203.297.455.297.759 0 .264-.183.494-.548.685-.365.19-.904.286-1.618.286-1.528 0-3.108-.247-4.742-.742-1.635-.498-2.938-1.131-3.91-1.899v5.039Zm25.382 1.214c-1.702-.85-2.989-2.004-3.847-3.46-.857-1.458-1.29-3.097-1.29-4.918 0-1.821.445-3.452 1.337-4.887.892-1.435 2.199-2.563 3.923-3.383 1.723-.82 3.783-1.227 6.182-1.227 2.971 0 5.438.638 7.4 1.913v5.555c-.692-.486-1.499-.88-2.42-1.184a9.4 9.4 0 0 0-2.959-.456c-1.843 0-3.282.343-4.323 1.032-1.04.69-1.562 1.588-1.562 2.702 0 1.093.505 1.986 1.516 2.689 1.011.698 2.475 1.049 4.398 1.049.989 0 1.966-.148 2.93-.438.959-.295 1.787-.655 2.479-1.08v5.373c-2.177 1.336-4.704 2.004-7.578 2.004-2.42-.01-4.484-.434-6.186-1.284Z"/><path fill="#5865F2" fill-rule="evenodd" d="M161.608 32.482c.9 1.479 2.208 2.641 3.923 3.491 1.711.85 3.736 1.27 6.076 1.27 2.339 0 4.364-.424 6.079-1.274 1.715-.85 3.019-2.012 3.911-3.491.891-1.479 1.337-3.127 1.337-4.948 0-1.843-.446-3.469-1.337-4.887-.892-1.418-2.191-2.528-3.894-3.34-1.702-.81-3.736-1.213-6.093-1.213-2.356 0-4.39.403-6.092 1.214-1.707.81-3.006 1.93-3.91 3.356-.905 1.427-1.354 3.053-1.354 4.874 0 1.822.454 3.47 1.354 4.948Zm14.04-4.822c0 1.214-.365 2.19-1.087 2.927-.721.738-1.707 1.106-2.954 1.11-1.27 0-2.268-.372-2.99-1.11-.721-.737-1.082-1.713-1.082-2.927s.361-2.177 1.082-2.897c.726-.72 1.72-1.08 2.99-1.08 1.247 0 2.233.36 2.954 1.08.726.716 1.087 1.683 1.087 2.897Z" clip-rule="evenodd"/><path fill="#5865F2" d="M200.791 19.217v6.557c-.755-.508-1.732-.76-2.942-.76-1.584 0-2.807.49-3.656 1.47-.853.981-1.278 2.507-1.278 4.571v5.586h-7.281V18.883h7.133v5.646c.395-2.064 1.036-3.586 1.919-4.57.879-.98 2.016-1.47 3.401-1.47 1.048 0 1.949.242 2.704.728Z"/><path fill="#5865F2" fill-rule="evenodd" d="M224.983 36.64V14.786h-7.282v7.923c-1.188-3.074-3.515-4.614-6.983-4.614-1.686 0-3.189.416-4.505 1.245-1.317.828-2.339 1.981-3.062 3.46-.725 1.479-1.078 3.148-1.057 5.009 0 1.804.336 3.417.998 4.843.667 1.427 1.613 2.55 2.84 3.37 1.228.82 2.663 1.227 4.31 1.227 1.842 0 3.396-.39 4.653-1.166 1.257-.781 2.191-1.922 2.806-3.418v3.977h7.282Zm-7.256-9.04c0 1.17-.369 2.129-1.112 2.866-.744.737-1.729 1.106-2.955 1.11-1.21 0-2.178-.364-2.913-1.093-.735-.728-1.099-1.67-1.099-2.823s.364-2.085 1.099-2.805c.735-.72 1.715-1.08 2.942-1.08 1.244 0 2.233.355 2.956 1.062.721.707 1.082 1.63 1.082 2.763Z" clip-rule="evenodd"/><path fill="#5865F2" d="M112.153 20.774c2.005 0 3.631-1.491 3.631-3.33 0-1.84-1.626-3.331-3.631-3.331s-3.63 1.491-3.63 3.33c0 1.84 1.625 3.33 3.63 3.33Zm3.627 2.294c-2.275 1.023-5.035.98-7.26 0v13.668h7.26V23.068Z"/></svg>
